src/assets/dropdown.svg

<svg xmlns="http://www.w3.org/2000/svg" fill="none" viewBox="0 0 10 7">
  <path fill="#000" d="M9.70711 2.37373c.39049-.39052.39049-1.02369 0-1.414211-.39053-.390524-1.02369-.390524-1.41422 0L9.70711 2.37373Zm-8-1.414211C1.31658.568995.683417.568995.292893.959519c-.3905245.390521-.3905246 1.023691 0 1.414211L1.70711.959519ZM5 5.66663l-.70711.7071c.39053.39053 1.02369.39053 1.41422 0L5 5.66663ZM8.29289.959519l-4 4.000001 1.41422 1.41421 4-4L8.29289.959519ZM5.70711 4.95952l-4-4.000001L.292893 2.37373l3.999997 4 1.41422-1.41421Z"/>
</svg>

<svg width="10" height="7" viewBox="0 0 10 7" fill="none" xmlns="http://www.w3.org/2000/svg">
<path d="M9.70711 2.37373C10.0976 1.98321 10.0976 1.35004 9.70711 0.959519C9.31658 0.568995 8.68342 0.568995 8.29289 0.959519L9.70711 2.37373ZM1.70711 0.959519C1.31658 0.568995 0.683417 0.568995 0.292893 0.959519C-0.0976315 1.35004 -0.0976316 1.98321 0.292893 2.37373L1.70711 0.959519ZM5 5.66663L4.29289 6.37373C4.68342 6.76426 5.31658 6.76426 5.70711 6.37373L5 5.66663ZM8.29289 0.959519L4.29289 4.95952L5.70711 6.37373L9.70711 2.37373L8.29289 0.959519ZM5.70711 4.95952L1.70711 0.959519L0.292893 2.37373L4.29289 6.37373L5.70711 4.95952Z" fill="#002848"/>
</svg>
